X:100
C:Page 48
T:Paddy Whack. MBe.100
S:Matthew Betham MS, Towcett Cumbria, 1815
O:England;Cumbria;Towcett
Z:VMP – Hugh Taylor, 2012
M:6/8
L:1/8
Q:3/8=100
R:.Jig
N:See also a 4 part version of this tune on page 26
N:The last 2 bars of the A part, and the B part are on page 49.
N:Page 49 is torn, so the B part is incomplete.
K:G
D|GBd gfg|edc BAG|GBd gfg|fdd def|
gfg fdB|cec dBG|GBd cAc|BGG G2:|
|:d/c/|BBB ccc|dBA ~A2 G|Bcd efg|fdd def|
gfg fdB|GBd:”>torn page”yyyy|

